X:1
T:The Down Town Rag
T:The Down Town Rag
T:By FRANK SIGNORELLI & GEO. CARROZZA 
T:Copyright 1923 by Jack Mills Inc.
T:Copyright 1923 by Jack Mills Inc.
T:Copyright 1923 by Jack Mills Inc.
T:Copyright 1923 by Jack Mills Inc.
C:By FRANK SIGNORELLI
Z:Copyright 1923 by Jack Mills Inc.
%%score { ( 1 2 ) | 3 }
L:1/8
Q:1/4=170
M:2/2
K:D
V:1 treble nm="Piano" snm="Pno."
V:2 treble 
V:3 bass 
V:1
"^Allegro Moderato"!mf! a a2 a- ab a2 | a a2 a- ab a2 | [cea]2 [Aca]2 [Bda]2 [^B^da]2 | %3
 [cea]4 !^![Acea]2 z2 || (3(aba) B2 (3(aba) B>a | [gb] B2 [eb]- [eb]>B [cb]2 | %6
 (3(aba) B2 (3(aba) B>a | [gb] B2 [eb]- [eb]>B [cb]2 | (3(aba) d2 (3(gag) B2 | %9
 [^Gdf] ^G2 [Gde]- [Gde]2 z2 | z3/2 e<[^Gdf]^d/ [GBe] [GBf]2 [GBe] | %11
 !arpeggio![=Gcea]bB[cea]- [cea]b [cea]2 | (3(aba) B2 (3(aba) B>a | [gb] B2 [eb]- [eb]>B [cb]2 | %14
 (3(aba) B2 (3(aba) B>a | [gb] B2 [eb]- [eb]>B [cb]2 | (3(aba) d2 (3(gag) B2 | %17
 [^Gdf] ^G2 [Gde]- [Gde]>f [Gde]2 | z3/2 e<[=Gcf]^d/ [^G=de] [=GAf]2 [GAe] | %19
 [FAd]2!<(! [dd']2 [cc']2 [dd']2!<)! |!ff! !///![fa=c'e']8- | [fac'e']2 [dd']2 [Aa]2 [Bb]2 | %22
 [=c=c']de^e f d'2 f | =c'ef[fb]- [fb]f [fa]2 | !///![Bd=fa]8- | [Bdfa]2 [Gg]2 [Dd]2 [Ee]2 | %26
!>(! !///![^GBd=f]8-!>)! |!mf! [GBdf]2 [^F^f]2 [=Gg]2 [^G^g]2 | %28
 [Aa]2 [Bb](3(d/e/^e/) f [fb]2 [fa] | [cgb]2 [Ff]2 [Gg]2 [^G^g]2 | %30
 [Aa]2 [Bb](3(d/e/^e/) f [dfb]2 [dfa] |!<(! [dfb]2 [cc']2 [dd']2 [ee']2!<)! |!f! !///![^gbd'f']8- | %33
 [gbd'f']2 [ee']2 [dd']2 [Bb]2 | [^gd'f']2 [gd'f'](3(g/a/^a/) b [gd'f']2!<(! [gd'e'] | %35
 [=gc'f']^d'e'!<)![c'a']- [c'a']^d' [c'e']2 |!ff! !///![fa=c'e']8- | [fac'e']2 [dd']2 [Aa]2 [Bb]2 | %38
 [=c=c']de^e f d'2 f | =c'ef[fb]- [fb]f [fa]2 | !///![Bd=fa]8- | [Bdfa]2 [Gg]2 [Dd]2 [Ee]2 | %42
 !///![^GBd=f]8- |!mf! [GBdf]2 [^F^f]2 [=Gg]2 [^G^g]2 | [Aa]2 [Bb](3(d/e/^e/) f [fb]2 [fa] | %45
 [cgb]2 [Ff]2 [Gg]2 [^G^g]2 | [Aa]2 [Bb](3(d/e/^e/) f [dfb]2 [dfa] | %47
!<(! [dfb]2 [cc']2 [dd']2 [ee']2!<)! |!ff! (!///![^gb-d'-f'-]8 | %49
 [=gbd'f'])e'[af'][bc'g']- [bc'g'][af'] [gc'e']2 | [fad']2 [da]>^a [d^gb]>c'[c=gb]>a | %51
 [dfd']4 !>![dfd'] z |[K:G][M:2/2]"^Trio"!mf! (3(ded) || [F^c]>e[F=c]>e [FB]>e[FA]>e | %54
 G [Be]2 [^Gd]- [Gd]2 (3([Gd]ed) | ^c [cgb]2 (3(a/b/a/) =c [cfb]2 (3(a/b/a/) | %56
 B [Bda]2 [Bdg]- [Bdg]2 (3([Gd]ed) | [F^c]>e[F=c]>e [FB]>e[FA]>e | G [GBe]2 [GBd]- [GBd]>e [GBd]2 | %59
 z ^A [cf]2 A [cf]2 [Acf] | z B [df]2 B [df]2 (3(d/e/d/) | [F^c]>e[F=c]>e [FB]>e[FA]>e | %62
 G [Be]2 [^Gd]- [Gd]2 (3([Gd]ed) | ^c [cgb]2 (3(a/b/a/) =c [cfb]2 (3(a/b/a/) | %64
 B [Bda]2 [Gdg]- [Gdg]3 (3(^c/d/^d/) | e2 [db]2 [e^gc']2 [dgb]2 | ^ceg[cgb]- [cgb]e [cga]2 | %67
 =cef[cfb]- [cfb]f [cdfa]2 | [Bdg]2 [Dd]2 [Dd]2 [Dd]2 | [F^c]>e[F=c]>e [FB]>e[FA]>e | %70
 G [Be]2 [^Gd]- [Gd]2 (3([Gd]ed) | ^c [cgb]2 (3(a/b/a/) =c [cfb]2 (3(a/b/a/) | %72
 B [Bda]2 [Bdg]- [Bdg]2 (3([Gd]ed) | [F^c]>e[F=c]>e [FB]>e[FA]>e | G [GBe]2 [GBd]- [GBd]>e [GBd]2 | %75
 z ^A [cf]2 A [cf]2 [Acf] | z B [df]2 B [df]2 (3(d/e/d/) | [F^c]>e[F=c]>e [FB]>e[FA]>e | %78
 G [Be]2 [^Gd]- [Gd]2 (3([Gd]ed) | ^c [cgb]2 (3(a/b/a/) =c [cfb]2 (3(a/b/a/) | %80
 B [Bda]2 [Gdg]- [Gdg]3 (3(^c/d/^d/) | e2 [db]2 [e^gc']2 [dgb]2 | ^ceg[=cgb]- [cgb]e [cga]2 | %83
 cdf[cfb]- [cfb]f [cdfa]2 | [Bdg]4 !^![GBdg]2 z2 ||[K:D] (3(aba) B2 (3(aba) B>a | %86
 [gb] B2 [eb]- [eb]>B [cb]2 | (3(aba) B2 (3(aba) B>a | [gb] B2 [eb]- [eb]>B [cb]2 | %89
 (3(aba) d2 (3(gag) B2 | [^Gdf] ^G2 [Gde]- [Gde]>f [Gde]2 | %91
 z3/2 e<[=Gcf]^d/ [^G=de] [=GAf]2 [GAe] | [FAd]2 [dd']2 [cc']2 [dd']2 | !///![fa=c'e']8- | %94
 [fac'e']2 [dd']2 [Aa]2 [Bb]2 | [=c=c']de^e f d'2 f | =c'ef[fb]- [fb]f [fa]2 | !///![Bd=fa]8- | %98
 [Bdfa]2 [Gg]2 [Dd]2 [Ee]2 |!>(! !///![^GBd=f]8-!>)! | [GBdf]2!mf! [^F^f]2 [=Gg]2 [^G^g]2 | %101
 [Aa]2 [Bb](3(d/e/^e/) f [fb]2 [fa] | [cgb]2 [Ff]2 [Gg]2 [^G^g]2 | %103
 [Aa]2 [Bb](3(d/e/^e/) f [dfb]2 [dfa] |!<(! [dfb]2 [cc']2 [dd']2 [ee']2!<)! | %105
!ff! (!///![^gb-d'-f'-]8 | [=gbd'f'])e'[af'][bc'g']- [bc'g'][af'] [gc'e']2 | %107
 [fad']2 [da]>^a [d^gb]>c'[c=gb]>a | [dfd']4 !>![dfd'] z!8va(! z2 || %109
"^Coda""_L.H." (3b'd''b' a'>b' f'2!8va)!"^loco" a>^a | (3(bd'b) a>b f2 A>^A | %111
 (3(BdB) A>d (3(BdB) A>d | (3(BdB) A>B d2 z2 |] %113
V:2
 [ce]6 [ce]2 | [^B^d]6 [Bd]2 | x8 | x8 || x8 | x8 | x8 | x8 | x8 | x8 | x8 | x8 | x8 | x8 | x8 | %15
 x8 | x8 | x8 | x8 | x8 | x8 | x8 | x8 | x8 | x8 | x8 | x8 | x8 | x8 | x8 | x8 | x8 | x8 | x8 | %34
 x8 | x8 | x8 | x8 | x8 | x8 | x8 | x8 | x8 | x8 | x8 | x8 | x8 | x8 | x8 | x8 | x8 | x6 | %52
[K:G][M:2/2] x2 || x8 | x8 | x8 | x8 | x8 | x8 | x8 | x8 | x8 | x8 | x8 | x8 | x8 | x8 | x8 | x8 | %69
 x8 | x8 | x8 | x8 | x8 | x8 | x8 | x8 | x8 | x8 | x8 | x8 | x8 | x8 | x8 | x8 ||[K:D] x8 | x8 | %87
 x8 | x8 | x8 | x8 | x8 | x8 | x8 | x8 | x8 | x8 | x8 | x8 | x8 | x8 | x8 | x8 | x8 | x8 | x8 | %106
 x8 | x8 | x6!8va(! a'>^a' || [^gd'f']2 [=gc'e']2 [fad']2!8va)! z2 | [^Gdf]2 [=Gce]2 [FAd]2 z2 | %111
 ^E2 F2 E2 F2 | =F4 [D^F]2 x2 |] %113
V:3
 [A,G]6 [A,G]2 | [A,F]6 [A,F]2 | [A,G]2 [A,E]2 [A,^E]2 [A,F]2 | [A,G]4 !^![A,,,A,,]2 z2 || %4
 F,2 [A,D]2 =F,2 [B,D]2 | E,2 [A,C]2 G,2 [A,E]2 | F,2 [A,D]2 =F,2 [B,D]2 | E,2 [A,C]2 G,2 [A,E]2 | %8
 F,2 [A,D]2 B,,2 [A,^D]2 | E,2 [B,D]2 [B,,B,]2 [A,,A,]2 | %10
 !>![^G,,^G,]2 [E,,E,]2 [^D,,^D,]2 [=D,,=D,]2 | [C,,C,]2 [A,,A,]2 [^G,,^G,]2 [=G,,=G,]2 | %12
 F,2 [A,D]2 =F,2 [B,D]2 | E,2 [A,C]2 G,2 [A,E]2 | F,2 [A,D]2 =F,2 [B,D]2 | E,2 [A,C]2 G,2 [A,E]2 | %16
 F,2 [A,D]2 B,,2 [A,^D]2 | B,,2 [E,^G,D]2 E,,2 [E,B,]2 | [A,,,A,,]2 [A,,A,]2 [B,,B,]2 [C,C]2 | %19
 [D,D]2 [A,,A,]2 [^G,,^G,]2 [=G,,=G,]2 | [F,,F,]2 [A,=CD]2 [D,,D,]2 [A,CD]2 | %21
 [A,,A,]2 [A,=CD]2 [D,,D,]2 [A,CD]2 | [A,,A,]2 [A,=CD]2 [D,,D,]2 [A,CD]2 | %23
 [A,,A,]2 [=CD]2 [D,,D,]2 [A,CD]2 | [G,,G,]2 [B,D]2 [D,,D,]2 [B,D]2 | %25
 [G,,G,]2 [B,,B,]2 [^A,,^A,]2 [=A,,=A,]2 | [^G,,^G,]2 [B,,B,]2 [^A,,^A,]2 [=A,,=A,]2 | %27
 [^G,,^G,]2 [A,,A,]2 [^G,,^G,]2 [=G,,=G,]2 | [F,,F,]2 [F,D]2 [^D,,^D,]2 [A,=C]2 | %29
 [E,,E,]2 [G,A,C]2 [G,,G,]2 [CE]2 | [F,,F,]2 [F,D]2 [A,,A,]2 [F,D]2 | %31
 [D,D]2 [B,,B,]2 [^A,,^A,]2 [=A,,=A,]2 | [^G,,^G,]2 [B,D]2 [E,,E,]2 [B,D]2 | %33
 [B,,B,]2 [^G,DE]2 [E,,E,]2 [G,DE]2 | [B,,B,]2 [DE]2 [E,,E,]2 [DE]2 | %35
 [A,,A,]2 [A,CG]2 [A,,,A,,]2 [A,CG]2 | [F,,F,]2 [A,=CD]2 [D,,D,]2 [A,CD]2 | %37
 [A,,A,]2 [A,=CD]2 [D,,D,]2 [A,CD]2 | [A,,A,]2 [A,=CD]2 [D,,D,]2 [A,CD]2 | %39
 [A,,A,]2 [=CD]2 [D,,D,]2 [A,CD]2 | [G,,G,]2 [B,D]2 [D,,D,]2 [B,D]2 | %41
 [G,,G,]2 [B,,B,]2 [^A,,^A,]2 [=A,,=A,]2 | [^G,,^G,]2 [B,,B,]2 [^A,,^A,]2 [=A,,=A,]2 | %43
 [^G,,^G,]2 [A,,A,]2 [^G,,^G,]2 [=G,,=G,]2 | [F,,F,]2 [F,D]2 [^D,,^D,]2 [A,=C]2 | %45
 [E,,E,]2 [G,A,C]2 [G,,G,]2 [CE]2 | [F,,F,]2 [F,D]2 [A,,A,]2 [F,D]2 | %47
 [D,D]2 [B,,B,]2 [^A,,^A,]2 [=A,,=A,]2 | [^G,,^G,]2 [B,D]2 [B,,B,]2 [^A,,^A,]2 | %49
 [=A,,=A,]2 [E,A,C]2 A,,2 [E,A,C]2 | [D,,D,]2 [F,,F,]2 [=F,,=F,]2 [E,,E,]2 | %51
 [D,,D,]2 [A,,,A,,]2 [D,,,D,,] z |[K:G][M:2/2] z2 || A,2 [CD]2 D,2 [CD]2 | G,2 [B,D]2 E,2 [B,D]2 | %55
 A,,2 [E,G,^C]2 [D,,D,]2 [A,D]2 | G,,2 [B,D]2 [B,,B,]2 [_B,,_B,]2 | [A,,A,]2 [CD]2 D,2 [CD]2 | %58
 G,2 [E,E]2 [_E,_E]2 [D,D]2 | [^C,^C]3 [F,CE]- [F,CE]2 [C,C]2 | %60
 [B,,B,]3 [F,B,D]- [F,B,D]2 [B,,B,]2 | A,2 [CD]2 D,2 [CD]2 | G,2 [B,D]2 E,2 [B,D]2 | %63
 A,,2 [E,G,^C]2 [D,,D,]2 [A,D]2 | G,,2 [B,,B,]2 [^A,,^A,]2 [=A,,=A,]2 | %65
 [^G,,^G,]2 [B,DE]2 [E,,E,]2 [B,DE]2 | A,,2 [E,A,^C]2 [E,,E,]2 [^E,,^E,]2 | %67
 [F,,F,]2 [D,,D,]2 [E,,E,]2 [F,,F,]2 | [G,,G,]2 [D,,D,]2 [E,,E,]2 [^E,,^E,]2 | %69
 A,2 [CD]2 D,2 [CD]2 | G,2 [B,D]2 E,2 [B,D]2 | A,,2 [E,G,^C]2 [D,,D,]2 [A,D]2 | %72
 G,,2 [B,D]2 [B,,B,]2 [_B,,_B,]2 | [A,,A,]2 [CD]2 D,2 [CD]2 | G,2 [E,E]2 [_E,_E]2 [D,D]2 | %75
 [^C,^C]3 [F,CE]- [F,CE]2 [C,C]2 | [B,,B,]3 [F,B,D]- [F,B,D]2 [B,,B,]2 | A,2 [CD]2 D,2 [CD]2 | %78
 G,2 [B,D]2 E,2 [B,D]2 | A,,2 [E,G,^C]2 [D,,D,]2 [A,D]2 | G,,2 [B,,B,]2 [^A,,^A,]2 [=A,,=A,]2 | %81
 [^G,,^G,]2 [B,DE]2 [E,,E,]2 [B,DE]2 | A,,2 [E,A,^C]2 [E,,E,]2 [^E,,^E,]2 | %83
 [F,,F,]2 [D,,D,]2 [E,,E,]2 [F,,F,]2 | [G,,G,]2 [D,,D,]2 !^![G,,,G,,]2 z2 || %85
[K:D] F,2 [A,D]2 =F,2 [B,D]2 | E,2 [A,C]2 G,2 [A,E]2 | F,2 [A,D]2 =F,2 [B,D]2 | %88
 E,2 [A,C]2 G,2 [A,E]2 | F,2 [A,D]2 B,,2 [A,^D]2 | B,,2 [E,^G,D]2 E,,2 [E,B,]2 | %91
 [A,,,A,,]2 [A,,A,]2 [B,,B,]2 [C,C]2 | [D,D]2 [A,,A,]2 [^G,,^G,]2 [=G,,=G,]2 | %93
 [F,,F,]2 [A,=CD]2 [D,,D,]2 [A,CD]2 | [A,,A,]2 [A,=CD]2 [D,,D,]2 [A,CD]2 | %95
 [A,,A,]2 [A,=CD]2 [D,,D,]2 [A,CD]2 | [A,,A,]2 [=CD]2 [D,,D,]2 [A,CD]2 | %97
 [G,,G,]2 [B,D]2 [D,,D,]2 [B,D]2 | [G,,G,]2 [B,,B,]2 [^A,,^A,]2 [=A,,=A,]2 | %99
 [^G,,^G,]2 [B,,B,]2 [^A,,^A,]2 [=A,,=A,]2 | [^G,,^G,]2 [A,,A,]2 [^G,,^G,]2 [=G,,=G,]2 | %101
 [F,,F,]2 [F,D]2 [^D,,^D,]2 [A,=C]2 | [E,,E,]2 [G,A,C]2 [G,,G,]2 [CE]2 | %103
 [F,,F,]2 [F,D]2 [A,,A,]2 [F,D]2 | [D,D]2 [B,,B,]2 [^A,,^A,]2 [=A,,=A,]2 | %105
 [^G,,^G,]2 [B,D]2 [B,,B,]2 [^A,,^A,]2 | [=A,,=A,]2 [E,A,C]2 A,,2 [E,A,C]2 | %107
 [D,,D,]2 [F,,F,]2 [=F,,=F,]2 [E,,E,]2 | [D,,D,]2 !>![A,,,A,,]2 !>![D,,,D,,] z z2 || x8 | x8 | %111
 [D,^G,]2 [D,A,]2 [D,G,]2 [D,A,]2 | [G,,D,G,]4 [D,,A,,D,]2 z2 |] %113

